resources/icons/icons/artifactSmall_dark.svg

<svg xmlns="http://www.w3.org/2000/svg" width="13" height="13" viewBox="0 0 13 13">
    <path d="M6.5,0.375l6.125,3.403l-6.125,3.403l-6.125,-3.403l6.125,-3.403Zm4.9,5.444l1.225,0.681l-6.125,3.403l-6.125,-3.403l1.225,-0.681l4.9,2.723l4.9,-2.723Zm0,2.723l1.225,0.68l-6.125,3.403l-6.125,-3.403l1.225,-0.68l4.9,2.722l4.9,-2.722Z" style="fill:#b066b0;fill-rule:nonzero;"/>
</svg>

<svg xmlns="http://www.w3.org/2000/svg" width="13" height="13" viewBox="0 0 13 13">
    <path d="M6.5,0.375L12.625,3.778L6.5,7.181L0.375,3.778L6.5,0.375ZM11.4,5.819L12.625,6.5L6.5,9.903L0.375,6.5L1.6,5.819L6.5,8.542L11.4,5.819ZM11.4,8.542L12.625,9.222L6.5,12.625L0.375,9.222L1.6,8.542L6.5,11.264L11.4,8.542Z" style="fill:#b066b0;fill-rule:nonzero;"/>
</svg>
